public/assets/images/others/icon/09.svg

<svg width="50" height="50" viewBox="0 0 50 50" fill="none" xmlns="http://www.w3.org/2000/svg">
<path fill-rule="evenodd" clip-rule="evenodd" d="M7.79613 0.686279H36.8785C37.3551 0.686279 37.7676 0.859417 38.1025 1.19432L43.43 6.52177C43.7649 6.85667 43.938 7.26922 43.938 7.74579V47.5816C43.938 48.5346 43.1589 49.3137 42.2059 49.3137H7.79613C6.83751 49.3137 6.06055 48.5338 6.06055 47.5816V2.42197C6.06055 1.46412 6.83839 0.686279 7.79613 0.686279ZM36.4853 2.25491H7.79613C7.70398 2.25491 7.62917 2.32971 7.62917 2.42197V47.5816C7.62917 47.6724 7.70476 47.7451 7.79613 47.7451H42.2059C42.2958 47.7451 42.3694 47.6716 42.3694 47.5816V8.13902H37.7453C37.0546 8.13902 36.4853 7.56971 36.4853 6.87902V2.25491ZM41.2602 6.5704L38.0539 3.36412V6.5704H41.2602ZM37.6463 26.4237C37.4063 32.9945 31.9964 38.2554 25.3674 38.2554C18.5858 38.2554 13.0802 32.7497 13.0802 25.9682C13.0802 19.1867 18.5858 13.681 25.3674 13.681C25.8003 13.681 26.1517 14.0325 26.1517 14.4653C26.1517 14.8981 25.8003 15.2496 25.3674 15.2496C19.4516 15.2496 14.6488 20.0525 14.6488 25.9682C14.6488 31.8839 19.4516 36.6868 25.3674 36.6868C31.123 36.6868 35.8252 32.1405 36.0754 26.4461L35.8053 26.6722C35.4732 26.95 34.9782 26.906 34.7003 26.574C34.4226 26.242 34.4666 25.747 34.7986 25.4691L36.4867 24.0567C36.7983 23.796 37.2573 23.8164 37.5446 24.1036L39.113 25.672C39.4191 25.978 39.4191 26.4751 39.113 26.7812C38.8068 27.0873 38.3099 27.0873 38.0038 26.7812L37.6463 26.4237ZM35.687 7.49746V11.5208C35.687 11.9539 35.3358 12.3051 34.9027 12.3051H15.0958C14.6627 12.3051 14.3115 11.9539 14.3115 11.5208V7.49746C14.3115 7.06432 14.6627 6.71314 15.0958 6.71314H34.9027C35.3358 6.71314 35.687 7.06432 35.687 7.49746ZM34.1184 8.28177H15.8802V10.7365H34.1184V8.28177ZM18.3647 44.9735C17.9318 44.9735 17.5803 44.6221 17.5803 44.1892C17.5803 43.7564 17.9318 43.4049 18.3647 43.4049H38.5584C38.9912 43.4049 39.3427 43.7564 39.3427 44.1892C39.3427 44.6221 38.9912 44.9735 38.5584 44.9735H18.3647ZM18.3647 41.2C17.9318 41.2 17.5803 40.8485 17.5803 40.4157C17.5803 39.9828 17.9318 39.6314 18.3647 39.6314H38.5584C38.9912 39.6314 39.3427 39.9828 39.3427 40.4157C39.3427 40.8485 38.9912 41.2 38.5584 41.2H18.3647ZM13.8645 41.2C13.4316 41.2 13.0802 40.8485 13.0802 40.4157C13.0802 39.9828 13.4316 39.6314 13.8645 39.6314H15.7698C16.2026 39.6314 16.5541 39.9828 16.5541 40.4157C16.5541 40.8485 16.2026 41.2 15.7698 41.2H13.8645ZM25.3674 17.1835C30.2202 17.1835 34.152 21.1154 34.152 25.9682C34.152 30.821 30.2202 34.7528 25.3674 34.7528C20.5146 34.7528 16.5827 30.821 16.5827 25.9682C16.5827 21.1154 20.5146 17.1835 25.3674 17.1835ZM25.3674 18.7522C21.3811 18.7522 18.1513 21.982 18.1513 25.9682C18.1513 29.9545 21.3811 33.1842 25.3674 33.1842C29.3536 33.1842 32.5834 29.9545 32.5834 25.9682C32.5834 21.982 29.3536 18.7522 25.3674 18.7522ZM24.5831 22.9419C24.5831 22.509 24.9345 22.1576 25.3674 22.1576C25.8003 22.1576 26.1517 22.509 26.1517 22.9419V25.5153L27.7816 26.4562C28.1565 26.6726 28.2853 27.1526 28.0689 27.5275C27.8525 27.9024 27.3724 28.0311 26.9975 27.8147L24.9753 26.6475C24.7326 26.5075 24.5831 26.2484 24.5831 25.9682V22.9419ZM21.4162 31.0285C21.1102 31.3346 20.6132 31.3346 20.307 31.0285C20.0009 30.7225 20.0009 30.2254 20.307 29.9193L20.7963 29.4301C21.1024 29.124 21.5994 29.124 21.9054 29.4301C22.2116 29.7362 22.2116 30.2332 21.9054 30.5393L21.4162 31.0285ZM20.307 22.0171C20.0009 21.711 20.0009 21.214 20.307 20.9079C20.6132 20.6018 21.1102 20.6018 21.4162 20.9079L21.9054 21.3972C22.2116 21.7032 22.2116 22.2002 21.9054 22.5064C21.5994 22.8125 21.1024 22.8125 20.7963 22.5064L20.307 22.0171ZM26.1517 32.3377C26.1517 32.7706 25.8003 33.1221 25.3674 33.1221C24.9345 33.1221 24.5831 32.7706 24.5831 32.3377V31.6481C24.5831 31.2153 24.9345 30.8638 25.3674 30.8638C25.8003 30.8638 26.1517 31.2153 26.1517 31.6481V32.3377ZM18.9979 26.7526C18.565 26.7526 18.2136 26.4011 18.2136 25.9682C18.2136 25.5353 18.565 25.1839 18.9979 25.1839H19.6875C20.1204 25.1839 20.4718 25.5353 20.4718 25.9682C20.4718 26.4011 20.1204 26.7526 19.6875 26.7526H18.9979ZM31.7392 25.1839C32.1721 25.1839 32.5235 25.5353 32.5235 25.9682C32.5235 26.4011 32.1721 26.7526 31.7392 26.7526H31.0473C30.6144 26.7526 30.263 26.4011 30.263 25.9682C30.263 25.5353 30.6144 25.1839 31.0473 25.1839H31.7392ZM24.5831 19.5987C24.5831 19.1658 24.9345 18.8144 25.3674 18.8144C25.8003 18.8144 26.1517 19.1658 26.1517 19.5987V20.2883C26.1517 20.7212 25.8003 21.0727 25.3674 21.0727C24.9345 21.0727 24.5831 20.7212 24.5831 20.2883V19.5987ZM30.4277 29.9193C30.7338 30.2254 30.7338 30.7225 30.4277 31.0285C30.1216 31.3346 29.6246 31.3346 29.3185 31.0285L28.8293 30.5393C28.5232 30.2332 28.5232 29.7362 28.8293 29.4301C29.1354 29.124 29.6323 29.124 29.9385 29.4301L30.4277 29.9193ZM29.3185 20.9079C29.6246 20.6018 30.1216 20.6018 30.4277 20.9079C30.7338 21.214 30.7338 21.711 30.4277 22.0171L29.9385 22.5064C29.6323 22.8125 29.1354 22.8125 28.8293 22.5064C28.5232 22.2002 28.5232 21.7032 28.8293 21.3972L29.3185 20.9079ZM13.8645 44.9735C13.4316 44.9735 13.0802 44.6221 13.0802 44.1892C13.0802 43.7564 13.4316 43.4049 13.8645 43.4049H15.7698C16.2026 43.4049 16.5541 43.7564 16.5541 44.1892C16.5541 44.6221 16.2026 44.9735 15.7698 44.9735H13.8645Z" fill="#615EFC"/>
</svg>

<svg xmlns="http://www.w3.org/2000/svg" width="50" height="50" fill="none" viewBox="0 0 50 50"><path fill="#615efc" fill-rule="evenodd" d="M7.796.686H36.88c.476 0 .889.173 1.224.508l5.327 5.328c.335.335.508.747.508 1.224v39.836c0 .953-.78 1.732-1.732 1.732H7.796c-.958 0-1.735-.78-1.735-1.732V2.422c0-.958.777-1.736 1.735-1.736m28.69 1.569H7.795a.167.167 0 0 0-.167.167v45.16c0 .09.076.163.167.163h34.41c.09 0 .163-.073.163-.163V8.139h-4.624c-.69 0-1.26-.57-1.26-1.26zM41.26 6.57l-3.206-3.206V6.57zm-3.614 19.854c-.24 6.57-5.65 11.831-12.279 11.831-6.781 0-12.287-5.505-12.287-12.287 0-6.781 5.506-12.287 12.287-12.287a.785.785 0 0 1 0 1.569c-5.915 0-10.718 4.802-10.718 10.718s4.803 10.719 10.718 10.719c5.756 0 10.458-4.546 10.708-10.24l-.27.225A.785.785 0 0 1 34.8 25.47l1.688-1.412a.784.784 0 0 1 1.058.047l1.568 1.568a.785.785 0 0 1-1.11 1.11zM35.687 7.497v4.024a.784.784 0 0 1-.784.784H15.096a.784.784 0 0 1-.784-.784V7.497c0-.433.35-.784.784-.784h19.807c.433 0 .784.351.784.784m-1.569.785H15.88v2.454h18.238zM18.365 44.974a.785.785 0 0 1 0-1.57h20.193a.785.785 0 0 1 0 1.57zm0-3.774a.785.785 0 0 1 0-1.569h20.193a.785.785 0 0 1 0 1.569zm-4.5 0a.785.785 0 0 1 0-1.569h1.905a.785.785 0 0 1 0 1.569zm11.502-24.017a8.783 8.783 0 0 1 8.785 8.785 8.783 8.783 0 0 1-8.785 8.785 8.783 8.783 0 0 1-8.784-8.785 8.783 8.783 0 0 1 8.784-8.785m0 1.57a7.215 7.215 0 0 0-7.216 7.215 7.215 7.215 0 0 0 7.216 7.216 7.215 7.215 0 0 0 7.216-7.216 7.215 7.215 0 0 0-7.216-7.216m-.784 4.189a.785.785 0 0 1 1.569 0v2.573l1.63.941a.785.785 0 0 1-.785 1.359l-2.022-1.168a.78.78 0 0 1-.392-.679zm-3.167 8.087a.785.785 0 0 1-1.109-1.11l.49-.489a.785.785 0 0 1 1.108 1.11zm-1.109-9.012a.785.785 0 0 1 1.11-1.11l.488.49a.784.784 0 0 1-1.109 1.11zm5.845 10.32a.785.785 0 0 1-1.569 0v-.689a.785.785 0 0 1 1.569 0zm-7.154-5.584a.785.785 0 0 1 0-1.57h.69a.785.785 0 0 1 0 1.57zm12.741-1.57a.785.785 0 0 1 0 1.57h-.692a.785.785 0 0 1 0-1.57zM24.583 19.6a.785.785 0 0 1 1.569 0v.69a.785.785 0 0 1-1.569 0zm5.845 10.32a.785.785 0 0 1-1.11 1.11l-.489-.49a.785.785 0 0 1 1.11-1.109zm-1.11-9.011a.785.785 0 0 1 1.11 1.11l-.49.488a.785.785 0 0 1-1.109-1.109zM13.865 44.974a.785.785 0 0 1 0-1.57h1.906a.785.785 0 0 1 0 1.57z" clip-rule="evenodd"/></svg>
